pix_core/t/email.svg

<!DOCTYPE svg PUBLIC "-//W3C//DTD SVG 1.1//EN" "http://www.w3.org/Graphics/SVG/1.1/DTD/svg11.dtd" [
	<!ENTITY ns_flows "http://ns.adobe.com/Flows/1.0/">
]><svg xmlns="http://www.w3.org/2000/svg" width="12" height="12" viewBox="0 -1 12 12" preserveAspectRatio="xMinYMid meet" overflow="visible" enable-background="new 0 -1 12 12"><path d="M0 0v10h12v-10h-12zm1 2.7l2.7 2.7-2.7 2.7v-5.4zm3.4 3.4l1.2 1.2c.1.1.3.2.4.2s.3 0 .4-.1l1.2-1.2 2.8 2.8h-8.8l2.8-2.9zm3.9-.7l2.7-2.7v5.4l-2.7-2.7zm2.7-4.4v.3l-4.6 4.6c-.2.2-.5.2-.7 0l-4.7-4.6v-.3h10z" fill="#999"/></svg>

<!DOCTYPE svg PUBLIC "-//W3C//DTD SVG 1.1//EN" "http://www.w3.org/Graphics/SVG/1.1/DTD/svg11.dtd" [
	<!ENTITY ns_flows "http://ns.adobe.com/Flows/1.0/">
]><svg xmlns="http://www.w3.org/2000/svg" width="12" height="12" viewBox="0 -1 12 12" preserveAspectRatio="xMinYMid meet" overflow="visible" enable-background="new 0 -1 12 12"><path d="M0 0v10h12V0H0zm1 2.7l2.7 2.7L1 8.1V2.7zm3.4 3.4l1.2 1.2c.1.1.3.2.4.2s.3 0 .4-.1l1.2-1.2L10.4 9H1.6l2.8-2.9zm3.9-.7L11 2.7v5.4L8.3 5.4zM11 1v.3L6.4 5.9c-.2.2-.5.2-.7 0L1 1.3V1h10z" fill="#999"/></svg>
